src/assets/toast/error.svg

<svg fill="none" height="36" viewBox="0 0 36 36" width="36" xmlns="http://www.w3.org/2000/svg"><path d="m32 18c0 7.732-6.268 14-14 14s-14-6.268-14-14 6.268-14 14-14 14 6.268 14 14zm-16.7322-6.2678c-.9763-.9763-2.5593-.9763-3.5356 0s-.9763 2.5593 0 3.5356l2.7323 2.7322-2.7323 2.7322c-.9763.9763-.9763 2.5593 0 3.5356s2.5593.9763 3.5356 0l2.7322-2.7323 2.7322 2.7323c.9763.9763 2.5593.9763 3.5356 0s.9763-2.5593 0-3.5356l-2.7323-2.7322 2.7323-2.7322c.9763-.9763.9763-2.5593 0-3.5356s-2.5593-.9763-3.5356 0l-2.7322 2.7323z" fill="#eb2f45" stroke="#eb2f45" stroke-width="2"/></svg>

<svg width="36" height="36" viewBox="0 0 36 36" fill="none" xmlns="http://www.w3.org/2000/svg">
    <path d="M32 18C32 25.732 25.732 32 18 32C10.268 32 4 25.732 4 18C4 10.268 10.268 4 18 4C25.732 4 32 10.268 32 18ZM15.2678 11.7322C14.2915 10.7559 12.7085 10.7559 11.7322 11.7322C10.7559 12.7085 10.7559 14.2915 11.7322 15.2678L14.4645 18L11.7322 20.7322C10.7559 21.7085 10.7559 23.2915 11.7322 24.2678C12.7085 25.2441 14.2915 25.2441 15.2678 24.2678L18 21.5355L20.7322 24.2678C21.7085 25.2441 23.2915 25.2441 24.2678 24.2678C25.2441 23.2915 25.2441 21.7085 24.2678 20.7322L21.5355 18L24.2678 15.2678C25.2441 14.2915 25.2441 12.7085 24.2678 11.7322C23.2915 10.7559 21.7085 10.7559 20.7322 11.7322L18 14.4645L15.2678 11.7322Z" fill="#EB2F45" stroke="#EB2F45" stroke-width="2"/>
</svg>
